X: 103
U:~=!turn!
M:C|
L:1/8
K:A minor
e>^f {/f}g2 f>g {fg}a2 | e>^f {/f}g2 agfd | (e>^f) {/f}g2 (f>g) a2 | e>d B2 (A>B)A>G |
(e>^f) {/f}g2 (f>g) {/g}a2 | (e>^f) {/f}g2 agfd | e^fge fd {/f}e2 | {/^c}d>B TB2 A>BAG |]


